(.../pcb-gcode-3.6.2.4/pcb-gcode.ulp)
(Copyright 2005 - 2012 by John Johnson)
(See readme.txt for licensing terms.)
(This file generated from the board:)
(.../usbaspclone/usbaspclone-2-2.brd)
(Current profile is .../pcb-gcode-3.6.2.4/profiles/mach.pp  )
(This file generated 14-6-6 PM7:22)
(Settings from pcb-machine.h)
(spindle on time = 3.0000)
(spindle speed = 8000.0000)
(tool change at 0.0000  0.0000  25.0000 )
(feed rate xy = F0     )
(feed rate z  = F100   )
(Z Axis Settings)
(  High     Up        Down     Drill)
(15.0000 	5.0000  	-0.1778 	-4.0000 )
(Settings from pcb-defaults.h)
(isolate min = 0.0254)
(isolate max = 0.5080)
(isolate step = 0.1270)
(Generated top drill, )
(Unit of measure: mm)
( Tool|       Size       |  Min Sub |  Max Sub |   Count )
( T01 | 0.800mm 0.0315in | 0.0000in | 0.0000in |       0 )
( T02 | 1.000mm 0.0394in | 0.0000in | 0.0000in |       0 )
( T03 | 1.200mm 0.0472in | 0.0000in | 0.0000in |       0 )
( T04 | 2.000mm 0.0787in | 0.0000in | 0.0000in |       0 )
( T05 | 2.200mm 0.0866in | 0.0000in | 0.0000in |       0 )
(Metric Mode)
G21
(Absolute Coordinates)
G90
S8000
G00 Z15.0000 
G00 X0.0000  Y0.0000  
M03
G04 P3.000000
M05
G00 Z25.0000 
M06 T01  ; 0.8000  
G01 Z0.0000  F100   
M06 
G00 Z5.0000  
M03
G04 P3.000000
G82 X19.0500 Y13.9700 Z-4.0000 F100   R5.0000  P1.000000
G82 X21.5900 Y13.9700 
G82 X24.1300 Y13.9700 
G82 X26.6700 Y13.9700 
G82 X29.2100 Y13.9700 
G82 X31.7500 Y13.9700 
G82 X34.2900 Y13.9700 
G82 X36.8300 Y13.9700 
G82 X39.3700 Y13.9700 
G82 X41.9100 Y13.9700 
G82 X44.4500 Y13.9700 
G82 X46.9900 Y13.9700 
G82 X49.5300 Y13.9700 
G82 X52.0700 Y13.9700 
G82 X55.6260 Y15.2400 
G82 X58.4200 Y11.9380 
G82 X55.6260 Y21.0820 
G82 X52.0700 Y21.5900 
G82 X49.5300 Y21.5900 
G82 X46.9900 Y21.5900 
G82 X44.4500 Y21.5900 
G82 X41.9100 Y21.5900 
G82 X39.3700 Y21.5900 
G82 X36.8300 Y21.5900 
G82 X34.2900 Y21.5900 
G82 X31.7500 Y21.5900 
G82 X29.2100 Y21.5900 
G82 X26.6700 Y21.5900 
G82 X24.1300 Y21.5900 
G82 X21.5900 Y21.5900 
G82 X19.0500 Y21.5900 
G82 X27.9400 Y25.4000 
G82 X30.4800 Y25.4000 
G82 X34.2900 Y25.4000 
G82 X36.8300 Y25.4000 
G82 X40.6400 Y8.8900  
G82 X45.7200 Y8.8900  
G82 X27.1780 Y10.1600 
M05
G00 Z25.0000 
G00 X0.0000  Y0.0000  
M06 T02  ; 1.0000  
G01 Z0.0000  F100   
M06 
G00 Z5.0000  
M03
G04 P3.000000
G82 X5.4480  Y14.9150 Z-4.0000 F100   R5.0000  P1.000000
G82 X5.4480  Y17.2880 
G82 X5.4480  Y19.5420 
G82 X5.4480  Y21.9150 
G82 X20.3200 Y25.4000 
G82 X22.8600 Y25.4000 
G82 X21.5900 Y10.1600 
G82 X24.1300 Y10.1600 
G82 X58.4200 Y15.2400 
G82 X60.9600 Y15.2400 
G82 X60.9600 Y17.7800 
G82 X58.4200 Y17.7800 
G82 X58.4200 Y20.3200 
G82 X60.9600 Y20.3200 
G82 X60.9600 Y25.4000 
G82 X58.4200 Y25.4000 
M05
G00 Z25.0000 
G00 X0.0000  Y0.0000  
M06 T03  ; 1.2000  
G01 Z0.0000  F100   
M06 
G00 Z5.0000  
M03
G04 P3.000000
G82 X2.9480  Y16.1650 Z-4.0000 F100   R5.0000  P1.000000
G82 X2.9480  Y20.6650 
M05
G00 Z25.0000 
G00 X0.0000  Y0.0000  
M06 T04  ; 2.0000  
G01 Z0.0000  F100   
M06 
G00 Z5.0000  
M03
G04 P3.000000
G82 X3.0000  Y3.9000  Z-4.0000 F100   R5.0000  P1.000000
G82 X3.0000  Y33.1000 
G82 X61.0000 Y33.1000 
G82 X61.0000 Y3.9000  
M05
G00 Z25.0000 
G00 X0.0000  Y0.0000  
M06 T05  ; 2.2000  
G01 Z0.0000  F100   
M06 
G00 Z5.0000  
M03
G04 P3.000000
G82 X3.0480  Y12.6150 Z-4.0000 F100   R5.0000  P1.000000
G82 X3.0480  Y24.2150 
T01 
G00 Z15.0000 
M05
M02
